build/img/logo/logo-form.svg

<svg width="151" height="31" viewBox="0 0 151 31" fill="none" xmlns="http://www.w3.org/2000/svg">
  <path
    d="M52.1 15H49.08V3.24H45.58C45.5 3.85333 45.4133 4.52 45.32 5.24C45.24 5.96 45.1467 6.69333 45.04 7.44C44.9467 8.17333 44.8467 8.87333 44.74 9.54C44.6333 10.1933 44.5267 10.7733 44.42 11.28C44.2467 12.1067 44.0133 12.8133 43.72 13.4C43.44 13.9867 43.0467 14.4333 42.54 14.74C42.0467 15.0467 41.4 15.2 40.6 15.2C40.08 15.2 39.6 15.1267 39.16 14.98V12.5C39.3333 12.5533 39.5 12.6 39.66 12.64C39.8333 12.68 40.02 12.7 40.22 12.7C40.6067 12.7 40.9 12.5 41.1 12.1C41.3133 11.6867 41.5267 10.92 41.74 9.8C41.82 9.37333 41.9333 8.70667 42.08 7.8C42.2267 6.89333 42.3867 5.83333 42.56 4.62C42.7467 3.39333 42.92 2.09333 43.08 0.719999H52.1V15ZM55.7023 0.719999H58.4223V7.62C58.4223 7.95333 58.4157 8.32667 58.4023 8.74C58.389 9.15333 58.3757 9.56 58.3623 9.96C58.349 10.3467 58.3357 10.6867 58.3223 10.98C58.309 11.26 58.2957 11.4533 58.2823 11.56H58.3423L64.9423 0.719999H68.5623V15H65.8623V8.14C65.8623 7.78 65.869 7.38667 65.8823 6.96C65.8957 6.52 65.909 6.1 65.9223 5.7C65.949 5.3 65.969 4.95333 65.9823 4.66C66.009 4.35333 66.029 4.15333 66.0423 4.06H65.9623L59.3423 15H55.7023V0.719999ZM81.1872 0.719999V3.22H75.1872V15H72.1672V0.719999H81.1872ZM90.7119 15L89.6719 11.6H84.4719L83.4319 15H80.1719L85.2119 0.66H88.9119L93.9719 15H90.7119ZM88.9519 9.06L87.9119 5.74C87.8452 5.51333 87.7585 5.22667 87.6519 4.88C87.5452 4.53333 87.4385 4.18 87.3319 3.82C87.2252 3.46 87.1385 3.14667 87.0719 2.88C87.0052 3.14667 86.9119 3.48 86.7919 3.88C86.6852 4.26667 86.5785 4.64 86.4719 5C86.3785 5.34667 86.3052 5.59333 86.2519 5.74L85.2319 9.06H88.9519ZM101.503 15V0.719999H110.523V3.22H104.523V6.2H105.723C107.07 6.2 108.17 6.38667 109.023 6.76C109.89 7.13333 110.53 7.64667 110.943 8.3C111.356 8.95333 111.563 9.7 111.563 10.54C111.563 11.9533 111.09 13.0533 110.143 13.84C109.21 14.6133 107.716 15 105.663 15H101.503ZM104.523 12.52H105.543C106.463 12.52 107.183 12.3733 107.703 12.08C108.236 11.7867 108.503 11.2733 108.503 10.54C108.503 9.78 108.216 9.28 107.643 9.04C107.07 8.8 106.29 8.68 105.303 8.68H104.523V12.52ZM118.497 3.86C119.964 3.86 121.084 4.18 121.857 4.82C122.644 5.44667 123.037 6.41333 123.037 7.72V15H120.957L120.377 13.52H120.297C119.83 14.1067 119.337 14.5333 118.817 14.8C118.297 15.0667 117.584 15.2 116.677 15.2C115.704 15.2 114.897 14.92 114.257 14.36C113.617 13.7867 113.297 12.9133 113.297 11.74C113.297 10.58 113.704 9.72667 114.517 9.18C115.33 8.62 116.55 8.31333 118.177 8.26L120.077 8.2V7.72C120.077 7.14667 119.924 6.72667 119.617 6.46C119.324 6.19333 118.91 6.06 118.377 6.06C117.844 6.06 117.324 6.14 116.817 6.3C116.31 6.44667 115.804 6.63333 115.297 6.86L114.317 4.84C114.904 4.53333 115.55 4.29333 116.257 4.12C116.977 3.94667 117.724 3.86 118.497 3.86ZM120.077 9.94L118.917 9.98C117.957 10.0067 117.29 10.18 116.917 10.5C116.544 10.82 116.357 11.24 116.357 11.76C116.357 12.2133 116.49 12.54 116.757 12.74C117.024 12.9267 117.37 13.02 117.797 13.02C118.437 13.02 118.977 12.8333 119.417 12.46C119.857 12.0733 120.077 11.5333 120.077 10.84V9.94ZM129.067 4.08V8.28H133.227V4.08H136.207V15H133.227V10.5H129.067V15H126.087V4.08H129.067ZM146.49 4.08H149.77L145.45 9.32L150.15 15H146.77L142.31 9.46V15H139.33V4.08H142.31V9.38L146.49 4.08Z"
    fill="#1F1E25"/>
  <path
    d="M43.9219 21.6602H45.0059V28H43.9219V23.377L40.998 28H39.9141V21.6602H40.998V26.2891L43.9219 21.6602ZM51.9258 28H50.8418V25.293H47.9297V28H46.8398V21.6602H47.9297V24.4082H50.8418V21.6602H51.9258V28ZM58.3828 22.5391H56.2559V28H55.1719V22.5391H53.0859V21.6602H58.3828V22.5391ZM61.5996 28.1172C60.7402 28.1172 60.041 27.8359 59.502 27.2734C58.9629 26.707 58.6934 25.9512 58.6934 25.0059V24.8066C58.6934 24.1777 58.8125 23.6172 59.0508 23.125C59.293 22.6289 59.6289 22.2422 60.0586 21.9648C60.4922 21.6836 60.9609 21.543 61.4648 21.543C62.2891 21.543 62.9297 21.8145 63.3867 22.3574C63.8438 22.9004 64.0723 23.6777 64.0723 24.6895V25.1406H59.7773C59.793 25.7656 59.9746 26.2715 60.3223 26.6582C60.6738 27.041 61.1191 27.2324 61.6582 27.2324C62.041 27.2324 62.3652 27.1543 62.6309 26.998C62.8965 26.8418 63.1289 26.6348 63.3281 26.377L63.9902 26.8926C63.459 27.709 62.6621 28.1172 61.5996 28.1172ZM61.4648 22.4336C61.0273 22.4336 60.6602 22.5938 60.3633 22.9141C60.0664 23.2305 59.8828 23.6758 59.8125 24.25H62.9883V24.168C62.957 23.6172 62.8086 23.1914 62.543 22.8906C62.2773 22.5859 61.918 22.4336 61.4648 22.4336ZM70.6875 24.9004C70.6875 25.8652 70.4668 26.6426 70.0254 27.2324C69.584 27.8223 68.9863 28.1172 68.2324 28.1172C67.4629 28.1172 66.8574 27.873 66.416 27.3848V30.4375H65.332V21.6602H66.3223L66.375 22.3633C66.8164 21.8164 67.4297 21.543 68.2148 21.543C68.9766 21.543 69.5781 21.8301 70.0195 22.4043C70.4648 22.9785 70.6875 23.7773 70.6875 24.8008V24.9004ZM69.6035 24.7773C69.6035 24.0625 69.4512 23.498 69.1465 23.084C68.8418 22.6699 68.4238 22.4629 67.8926 22.4629C67.2363 22.4629 66.7441 22.7539 66.416 23.3359V26.3652C66.7402 26.9434 67.2363 27.2324 67.9043 27.2324C68.4238 27.2324 68.8359 27.0273 69.1406 26.6172C69.4492 26.2031 69.6035 25.5898 69.6035 24.7773ZM77.25 28H76.166V25.293H73.2539V28H72.1641V21.6602H73.2539V24.4082H76.166V21.6602H77.25V28ZM81.627 28.1172C80.7676 28.1172 80.0684 27.8359 79.5293 27.2734C78.9902 26.707 78.7207 25.9512 78.7207 25.0059V24.8066C78.7207 24.1777 78.8398 23.6172 79.0781 23.125C79.3203 22.6289 79.6562 22.2422 80.0859 21.9648C80.5195 21.6836 80.9883 21.543 81.4922 21.543C82.3164 21.543 82.957 21.8145 83.4141 22.3574C83.8711 22.9004 84.0996 23.6777 84.0996 24.6895V25.1406H79.8047C79.8203 25.7656 80.002 26.2715 80.3496 26.6582C80.7012 27.041 81.1465 27.2324 81.6855 27.2324C82.0684 27.2324 82.3926 27.1543 82.6582 26.998C82.9238 26.8418 83.1562 26.6348 83.3555 26.377L84.0176 26.8926C83.4863 27.709 82.6895 28.1172 81.627 28.1172ZM81.4922 22.4336C81.0547 22.4336 80.6875 22.5938 80.3906 22.9141C80.0938 23.2305 79.9102 23.6758 79.8398 24.25H83.0156V24.168C82.9844 23.6172 82.8359 23.1914 82.5703 22.8906C82.3047 22.5859 81.9453 22.4336 81.4922 22.4336ZM90 22.5391H87.873V28H86.7891V22.5391H84.7031V21.6602H90V22.5391ZM93.3105 24.8184H90.4512V23.9336H93.3105V24.8184ZM97.1543 22.0234C97.9512 22.0234 98.5879 22.291 99.0645 22.8262C99.5449 23.3574 99.7852 24.0586 99.7852 24.9297V25.0293C99.7852 25.627 99.6699 26.1621 99.4395 26.6348C99.209 27.1035 98.877 27.4688 98.4434 27.7305C98.0137 27.9883 97.5176 28.1172 96.9551 28.1172C96.1035 28.1172 95.418 27.834 94.8984 27.2676C94.3789 26.6973 94.1191 25.9336 94.1191 24.9766V24.4492C94.1191 23.1172 94.3652 22.0586 94.8574 21.2734C95.3535 20.4883 96.084 20.0098 97.0488 19.8379C97.5957 19.7402 97.9648 19.6211 98.1562 19.4805C98.3477 19.3398 98.4434 19.1465 98.4434 18.9004H99.334C99.334 19.3887 99.2227 19.7695 99 20.043C98.7812 20.3164 98.4297 20.5098 97.9453 20.623L97.1367 20.8047C96.4922 20.957 96.0078 21.2148 95.6836 21.5781C95.3633 21.9375 95.1543 22.418 95.0566 23.0195C95.6309 22.3555 96.3301 22.0234 97.1543 22.0234ZM96.9434 22.9141C96.4121 22.9141 95.9902 23.0938 95.6777 23.4531C95.3652 23.8086 95.209 24.3027 95.209 24.9355V25.0293C95.209 25.709 95.3652 26.248 95.6777 26.6465C95.9941 27.041 96.4199 27.2383 96.9551 27.2383C97.4941 27.2383 97.9199 27.0391 98.2324 26.6406C98.5449 26.2422 98.7012 25.6602 98.7012 24.8945C98.7012 24.2969 98.543 23.8184 98.2266 23.459C97.9141 23.0957 97.4863 22.9141 96.9434 22.9141ZM104.918 28C104.855 27.875 104.805 27.6523 104.766 27.332C104.262 27.8555 103.66 28.1172 102.961 28.1172C102.336 28.1172 101.822 27.9414 101.42 27.5898C101.021 27.2344 100.822 26.7852 100.822 26.2422C100.822 25.582 101.072 25.0703 101.572 24.707C102.076 24.3398 102.783 24.1562 103.693 24.1562H104.748V23.6582C104.748 23.2793 104.635 22.9785 104.408 22.7559C104.182 22.5293 103.848 22.416 103.406 22.416C103.02 22.416 102.695 22.5137 102.434 22.709C102.172 22.9043 102.041 23.1406 102.041 23.418H100.951C100.951 23.1016 101.062 22.7969 101.285 22.5039C101.512 22.207 101.816 21.9727 102.199 21.8008C102.586 21.6289 103.01 21.543 103.471 21.543C104.201 21.543 104.773 21.7266 105.188 22.0938C105.602 22.457 105.816 22.959 105.832 23.5996V26.5176C105.832 27.0996 105.906 27.5625 106.055 27.9062V28H104.918ZM103.119 27.1738C103.459 27.1738 103.781 27.0859 104.086 26.9102C104.391 26.7344 104.611 26.5059 104.748 26.2246V24.9238H103.898C102.57 24.9238 101.906 25.3125 101.906 26.0898C101.906 26.4297 102.02 26.6953 102.246 26.8867C102.473 27.0781 102.764 27.1738 103.119 27.1738ZM112.711 28H111.627V25.293H108.715V28H107.625V21.6602H108.715V24.4082H111.627V21.6602H112.711V28ZM116.432 25.2988H115.641V28H114.551V21.6602H115.641V24.3438H116.35L118.482 21.6602H119.795L117.287 24.707L120.006 28H118.629L116.432 25.2988Z"
    fill="#1F1E25"/>
  <path d="M17.875 1H14.75L1 24.0488H5.0625L6.9375 20.7561L17.875 1Z" fill="#2C36F2"/>
  <path d="M2.875 28H29.125L17.875 7.58537L16 10.878L21.625 20.7561L23.5 24.0488H5.0625H1L2.875 28Z" fill="#2C36F2"/>
  <path d="M23.5 24.0488L21.625 20.7561H10.375H6.9375L5.0625 24.0488H23.5Z" fill="#2C36F2"/>
  <path d="M29.125 28L31 24.0488L17.875 1L6.9375 20.7561H10.375L16 10.878L17.875 7.58537L29.125 28Z" fill="#2C36F2"/>
  <path d="M16 10.878L10.375 20.7561H21.625L16 10.878Z" fill="#2C36F2"/>
  <path
    d="M29.125 28H2.875L1 24.0488M29.125 28L31 24.0488L17.875 1M29.125 28L17.875 7.58537L16 10.878M17.875 1H14.75L1 24.0488M17.875 1L6.9375 20.7561M1 24.0488H5.0625M16 10.878L10.375 20.7561M16 10.878L21.625 20.7561M10.375 20.7561H21.625M10.375 20.7561H6.9375M21.625 20.7561L23.5 24.0488H5.0625M6.9375 20.7561L5.0625 24.0488"
    stroke="#F6F7FF"/>
</svg>

<svg width="151" height="31" fill="none" xmlns="http://www.w3.org/2000/svg"><path d="M52.1 15h-3.02V3.24h-3.5l-.26 2a70.91 70.91 0 01-.28 2.2 66.072 66.072 0 01-.3 2.1 39.205 39.205 0 01-.32 1.74c-.173.827-.407 1.533-.7 2.12-.28.587-.673 1.033-1.18 1.34-.493.307-1.14.46-1.94.46-.52 0-1-.073-1.44-.22V12.5c.173.053.34.1.5.14.173.04.36.06.56.06.387 0 .68-.2.88-.6.213-.413.427-1.18.64-2.3a90.4 90.4 0 00.34-2c.147-.907.307-1.967.48-3.18.187-1.227.36-2.527.52-3.9h9.02V15zM55.702.72h2.72v6.9c0 .333-.006.707-.02 1.12l-.04 1.22c-.013.387-.026.727-.04 1.02-.013.28-.026.473-.04.58h.06l6.6-10.84h3.62V15h-2.7V8.14c0-.36.007-.753.02-1.18l.04-1.26c.027-.4.047-.747.06-1.04.027-.307.047-.507.06-.6h-.08L59.342 15h-3.64V.72zm25.485 0v2.5h-6V15h-3.02V.72h9.02zM90.712 15l-1.04-3.4h-5.2l-1.04 3.4h-3.26L85.212.66h3.7L93.972 15h-3.26zm-1.76-5.94l-1.04-3.32a76.767 76.767 0 00-.26-.86c-.107-.347-.213-.7-.32-1.06-.107-.36-.194-.673-.26-.94-.067.267-.16.6-.28 1-.107.387-.213.76-.32 1.12a10.24 10.24 0 01-.22.74l-1.02 3.32h3.72zM101.503 15V.72h9.02v2.5h-6V6.2h1.2c1.347 0 2.447.187 3.3.56.867.373 1.507.887 1.92 1.54.413.653.62 1.4.62 2.24 0 1.413-.473 2.513-1.42 3.3-.933.773-2.427 1.16-4.48 1.16h-4.16zm3.02-2.48h1.02c.92 0 1.64-.147 2.16-.44.533-.293.8-.807.8-1.54 0-.76-.287-1.26-.86-1.5s-1.353-.36-2.34-.36h-.78v3.84zm13.974-8.66c1.467 0 2.587.32 3.36.96.787.627 1.18 1.593 1.18 2.9V15h-2.08l-.58-1.48h-.08c-.467.587-.96 1.013-1.48 1.28-.52.267-1.233.4-2.14.4-.973 0-1.78-.28-2.42-.84-.64-.573-.96-1.447-.96-2.62 0-1.16.407-2.013 1.22-2.56.813-.56 2.033-.867 3.66-.92l1.9-.06v-.48c0-.573-.153-.993-.46-1.26-.293-.267-.707-.4-1.24-.4s-1.053.08-1.56.24c-.507.147-1.013.333-1.52.56l-.98-2.02a8.586 8.586 0 011.94-.72 9.54 9.54 0 012.24-.26zm1.58 6.08l-1.16.04c-.96.027-1.627.2-2 .52s-.56.74-.56 1.26c0 .453.133.78.4.98.267.187.613.28 1.04.28.64 0 1.18-.187 1.62-.56.44-.387.66-.927.66-1.62v-.9zm8.99-5.86v4.2h4.16v-4.2h2.98V15h-2.98v-4.5h-4.16V15h-2.98V4.08h2.98zm17.423 0h3.28l-4.32 5.24 4.7 5.68h-3.38l-4.46-5.54V15h-2.98V4.08h2.98v5.3l4.18-5.3zM43.922 21.66h1.084V28h-1.084v-4.623L40.998 28h-1.084v-6.34h1.084v4.63l2.924-4.63zM51.926 28h-1.084v-2.707H47.93V28h-1.09v-6.34h1.09v2.748h2.912V21.66h1.084V28zm6.457-5.46h-2.127V28h-1.084v-5.46h-2.086v-.88h5.297v.88zm3.217 5.577c-.86 0-1.559-.281-2.098-.844-.54-.566-.809-1.322-.809-2.267v-.2c0-.628.12-1.189.358-1.681a2.815 2.815 0 011.008-1.16 2.535 2.535 0 011.406-.422c.824 0 1.465.271 1.922.814.457.543.685 1.32.685 2.332v.452h-4.295c.016.625.198 1.13.545 1.517.352.383.797.574 1.336.574.383 0 .707-.078.973-.234.266-.156.498-.363.697-.621l.662.516c-.531.816-1.328 1.224-2.39 1.224zm-.135-5.683c-.438 0-.805.16-1.102.48-.297.316-.48.762-.55 1.336h3.175v-.082c-.031-.55-.18-.977-.445-1.277-.266-.305-.625-.457-1.078-.457zm9.222 2.466c0 .965-.22 1.743-.662 2.332-.441.59-1.039.885-1.793.885-.77 0-1.375-.244-1.816-.732v3.052h-1.084V21.66h.99l.053.703c.441-.547 1.055-.82 1.84-.82.762 0 1.363.287 1.804.861.446.575.668 1.373.668 2.397v.1zm-1.084-.123c0-.715-.152-1.279-.456-1.693-.305-.414-.723-.621-1.254-.621-.657 0-1.149.29-1.477.873v3.03c.324.577.82.866 1.488.866.52 0 .932-.205 1.237-.615.308-.414.462-1.027.462-1.84zM77.25 28h-1.084v-2.707h-2.912V28h-1.09v-6.34h1.09v2.748h2.912V21.66h1.084V28zm4.377.117c-.86 0-1.559-.281-2.098-.844-.539-.566-.808-1.322-.808-2.267v-.2c0-.628.119-1.189.357-1.681a2.815 2.815 0 011.008-1.16 2.536 2.536 0 011.406-.422c.824 0 1.465.271 1.922.814.457.543.686 1.32.686 2.332v.452h-4.295c.015.625.197 1.13.545 1.517.351.383.797.574 1.336.574.382 0 .707-.078.972-.234.266-.156.498-.363.698-.621l.662.516c-.532.816-1.329 1.224-2.391 1.224zm-.135-5.683c-.437 0-.805.16-1.101.48-.297.316-.48.762-.551 1.336h3.176v-.082c-.032-.55-.18-.977-.446-1.277-.265-.305-.625-.457-1.078-.457zm8.508.105h-2.127V28h-1.084v-5.46h-2.086v-.88H90v.88zm3.31 2.28h-2.859v-.885h2.86v.884zm3.844-2.796c.797 0 1.434.268 1.91.803.48.531.721 1.233.721 2.104v.1c0 .597-.115 1.132-.346 1.605-.23.468-.562.834-.996 1.095-.43.258-.925.387-1.488.387-.852 0-1.537-.283-2.057-.85-.52-.57-.779-1.333-.779-2.29v-.528c0-1.332.246-2.39.738-3.176.496-.785 1.227-1.263 2.192-1.435.547-.098.916-.217 1.107-.358a.68.68 0 00.287-.58h.891c0 .489-.111.87-.334 1.143-.219.273-.57.467-1.055.58l-.808.182c-.645.152-1.13.41-1.453.773-.32.36-.53.84-.627 1.442.574-.665 1.273-.997 2.097-.997zm-.21.891c-.532 0-.954.18-1.266.54-.313.355-.469.849-.469 1.482v.093c0 .68.156 1.219.469 1.617.316.395.742.592 1.277.592.54 0 .965-.199 1.277-.597.313-.399.47-.98.47-1.746 0-.598-.159-1.077-.475-1.436-.313-.363-.74-.545-1.284-.545zM104.917 28c-.063-.125-.113-.348-.152-.668-.504.523-1.106.785-1.805.785-.625 0-1.139-.176-1.541-.527a1.726 1.726 0 01-.598-1.348c0-.66.25-1.172.75-1.535.504-.367 1.211-.55 2.121-.55h1.055v-.499c0-.379-.113-.68-.34-.902-.226-.227-.56-.34-1.002-.34-.386 0-.711.098-.972.293-.262.195-.393.432-.393.709h-1.09c0-.316.111-.621.334-.914.227-.297.531-.531.914-.703a3.098 3.098 0 011.272-.258c.73 0 1.302.184 1.717.55.414.364.628.866.644 1.507v2.918c0 .582.074 1.044.223 1.388V28h-1.137zm-1.799-.826c.34 0 .662-.088.967-.264.305-.176.525-.404.662-.685v-1.301h-.85c-1.328 0-1.992.389-1.992 1.166 0 .34.114.605.34.797.227.191.518.287.873.287zm9.592.826h-1.084v-2.707h-2.912V28h-1.09v-6.34h1.09v2.748h2.912V21.66h1.084V28zm3.721-2.701h-.791V28h-1.09v-6.34h1.09v2.684h.709l2.132-2.684h1.313l-2.508 3.047 2.72 3.293h-1.377l-2.197-2.701z" fill="#1F1E25"/><path d="M17.875 1H14.75L1 24.049h4.063l1.875-3.293L17.874 1z" fill="#2C36F2"/><path d="M2.875 28h26.25L17.875 7.585 16 10.878l5.625 9.878L23.5 24.05H1L2.875 28z" fill="#2C36F2"/><path d="M23.5 24.049l-1.875-3.293H6.937L5.063 24.05H23.5z" fill="#2C36F2"/><path d="M29.125 28L31 24.049 17.875 1 6.937 20.756h3.438L16 10.878l1.875-3.293L29.125 28z" fill="#2C36F2"/><path d="M16 10.878l-5.625 9.878h11.25L16 10.878z" fill="#2C36F2"/><path d="M29.125 28H2.875L1 24.049M29.125 28L31 24.049 17.875 1m11.25 27L17.875 7.585 16 10.878M17.875 1H14.75L1 24.049M17.875 1L6.937 20.756M1 24.05h4.063M16 10.878l-5.625 9.878M16 10.878l5.625 9.878m-11.25 0h11.25m-11.25 0H6.937m14.688 0L23.5 24.05H5.062m1.875-3.293L5.063 24.05" stroke="#F6F7FF"/></svg>
